X: 3
T: Nora Crionna
R: jig
M: 6/8
L: 1/8
K: Gmaj
|: GFG BAG | A2 B cBA | B2 d gdB | AGA cBA |GFG BAG | A2 B cBA | f/g/af gdB | AGA cBA :||: B2 d gdB | dGB dgd | B2 d gdB | AGA cBA |B2 d gdB | dGB def | gfe dcB | AGA cBA :|


Tune 2009	Setting 15421

